packages/core/src/svgs/tokens/mono/HGT.svg

<svg width="24" height="24" viewBox="0 0 24 24" fill="none" xmlns="http://www.w3.org/2000/svg">
<path d="M7.62498 7.64434V2L11.9999 6.11498L7.62498 7.64434ZM7.62498 16.3656V22L11.9999 17.8849L7.62498 16.3656ZM7.62498 7.62498H2L6.10811 12.0775L7.62498 7.62498ZM16.3749 7.62498H22L17.9018 11.9299L16.3749 7.62498ZM16.3749 7.64434V2L11.9999 6.11498L16.3749 7.64434ZM16.3749 16.3706V22L11.9999 17.8849L16.3749 16.3706ZM7.62498 16.3749H2L6.12811 12.0869L7.62498 16.3749ZM16.3749 16.3749H22L17.878 11.9769L16.3749 16.3749Z" fill="white"/>
<path d="M11.9997 14.4995C13.38 14.4995 14.499 13.3803 14.499 11.9995C14.499 10.6189 13.38 9.49951 11.9997 9.49951C10.6194 9.49951 9.50024 10.6189 9.50024 11.9995C9.50024 13.3803 10.6194 14.4995 11.9997 14.4995Z" fill="white"/>
</svg>

<svg xmlns="http://www.w3.org/2000/svg" width="24" height="24" fill="none" viewBox="0 0 24 24">
    <path fill="#fff" d="M7.625 7.644V2L12 6.115zm0 8.722V22L12 17.885zm0-8.741H2l4.108 4.453zm8.75 0H22l-4.098 4.305zm0 .02V2L12 6.115zm0 8.726V22L12 17.885zm-8.75.004H2l4.128-4.288zm8.75 0H22l-4.122-4.398zM12 14.5a2.5 2.5 0 1 0 0-5 2.5 2.5 0 0 0 0 5"/>
</svg>
